X:1
T:Tú Señor
T:Tú Señor - Intro
T:Hora Santa - Adoración
%%score 1 2 3
L:1/8
Q:1/4=60
M:4/4
K:G
V:1 treble transpose=-14 nm="Tenorsaxophon" snm="T. Sax."
V:2 treble transpose=-9 nm="Altsaxophon" snm="A.sax."
V:3 tab stafflines=6 strings=E2,A2,D3,G3,B3,E4 nm="Klassische Gitarre" snm="Git."
V:1
[K:A] cd | e4 z2 ef- | f e4 z AB/c/ | d3 f<edcd | e4 z4 |] %5
V:2
[K:E] z2 | z2 ed B4 | z2 fe d/e/f Bc/d/ | e3 e<defB | g4 z4 |] %5
V:3
 x2 | %1
 [!6!G,,!5!B,,!4!D,!3!G,!2!D!1!G]>[!6!G,,!5!B,,!4!D,!3!G,!2!D!1!G] [!6!G,,!5!B,,!4!D,!3!G,!2!D!1!G][!6!G,,!5!B,,!4!D,!3!G,!2!D!1!G]>[!6!G,,!5!B,,!4!D,!3!G,!2!D!1!G][!6!G,,!5!B,,!4!D,!3!G,!2!D!1!G] [!6!G,,!5!B,,!4!D,!3!G,!2!D!1!G][!6!G,,!5!B,,!4!D,!3!G,!2!D!1!G] | %2
 [!4!D,!3!A,!2!D!1!F]>[!4!D,!3!A,!2!D!1!F] [!4!D,!3!A,!2!D!1!F][!4!D,!3!A,!2!D!1!F]>[!4!D,!3!A,!2!D!1!F][!4!D,!3!A,!2!D!1!F] [!4!D,!3!A,!2!D!1!F][!4!D,!3!A,!2!D!1!F] | %3
 [!5!C,!4!E,!3!G,!2!C!1!G]>[!5!C,!4!E,!3!G,!2!C!1!G] [!5!C,!4!E,!3!G,!2!C!1!G][!5!C,!4!E,!3!G,!2!C!1!G] [!4!D,!3!A,!2!D!1!F]>[!4!D,!3!A,!2!D!1!F] [!4!D,!3!A,!2!D!1!F][!4!D,!3!A,!2!D!1!F] | %4
 [!6!G,,!5!B,,!4!D,!3!G,!2!D!1!G]>[!6!G,,!5!B,,!4!D,!3!G,!2!D!1!G] [!6!G,,!5!B,,!4!D,!3!G,!2!D!1!G][!6!G,,!5!B,,!4!D,!3!G,!2!D!1!G]>[!6!G,,!5!B,,!4!D,!3!G,!2!D!1!G][!6!G,,!5!B,,!4!D,!3!G,!2!D!1!G] [!6!G,,!5!B,,!4!D,!3!G,!2!D!1!G][!6!G,,!5!B,,!4!D,!3!G,!2!D!1!G] |] %5

